Newaita-dark/actions/24/edit.svg

<?xml version="1.0" encoding="UTF-8"?>
<svg xmlns="http://www.w3.org/2000/svg" xmlns:xlink="http://www.w3.org/1999/xlink" width="24pt" height="24pt" viewBox="0 0 24 24" version="1.1">
<defs>
<filter id="alpha" filterUnits="objectBoundingBox" x="0%" y="0%" width="100%" height="100%">
  <feColorMatrix type="matrix" in="SourceGraphic" values="0 0 0 0 1 0 0 0 0 1 0 0 0 0 1 0 0 0 1 0"/>
</filter>
<mask id="mask0">
  <g filter="url(#alpha)">
<rect x="0" y="0" width="24" height="24" style="fill:rgb(0%,0%,0%);fill-opacity:0.988235;stroke:none;"/>
  </g>
</mask>
<clipPath id="clip1">
  <rect x="0" y="0" width="24" height="24"/>
</clipPath>
<g id="surface5" clip-path="url(#clip1)">
<path style=" stroke:none;fill-rule:nonzero;fill:rgb(74.117649%,74.117649%,74.117649%);fill-opacity:0.976471;" d="M 17.746094 1.9375 C 16.96875 1.160156 15.714844 1.160156 14.9375 1.9375 L 3.710938 13.164062 L 10.730469 20.179688 L 21.957031 8.953125 C 22.734375 8.175781 22.734375 6.921875 21.957031 6.144531 Z M 16.867188 3.164062 L 20.726562 7.023438 C 21.019531 7.316406 21.019531 7.785156 20.726562 8.074219 L 11.253906 17.546875 C 10.964844 17.839844 10.496094 17.839844 10.203125 17.546875 L 6.34375 13.6875 C 6.050781 13.398438 6.050781 12.929688 6.34375 12.636719 L 15.816406 3.164062 C 16.109375 2.871094 16.578125 2.871094 16.867188 3.164062 Z M 16.867188 3.164062 "/>
</g>
</defs>
<g id="surface1">
<use xlink:href="#surface5" mask="url(#mask0)"/>
<path style=" stroke:none;fill-rule:evenodd;fill:rgb(47.058824%,56.470591%,61.176473%);fill-opacity:1;" d="M 3.0625 13.914062 L 1.34375 21.359375 C 1.179688 22.074219 1.816406 22.714844 2.53125 22.550781 L 9.976562 20.832031 Z M 3.0625 13.914062 "/>
</g>
</svg>

<svg xmlns="http://www.w3.org/2000/svg" xmlns:xlink="http://www.w3.org/1999/xlink" width="32" height="32" viewBox="0 0 24 24"><defs><filter id="a" filterUnits="objectBoundingBox" x="0%" y="0%" width="100%" height="100%"><feColorMatrix in="SourceGraphic" values="0 0 0 0 1 0 0 0 0 1 0 0 0 0 1 0 0 0 1 0"/></filter><mask id="d"><path fill-opacity=".988" d="M0 0h24v24H0z" filter="url(#a)"/></mask><clipPath id="b"><path d="M0 0h24v24H0z"/></clipPath><g id="c" clip-path="url(#b)"><path d="M17.746 1.938a1.983 1.983 0 0 0-2.808 0L3.71 13.164l7.02 7.016L21.956 8.953a1.983 1.983 0 0 0 0-2.808zm-.879 1.226l3.86 3.86a.738.738 0 0 1 0 1.05l-9.473 9.473a.738.738 0 0 1-1.05 0l-3.86-3.86a.738.738 0 0 1 0-1.05l9.472-9.473a.738.738 0 0 1 1.051 0zm0 0" fill="#bdbdbd" fill-opacity=".976"/></g></defs><use xlink:href="#c" mask="url(#d)"/><path d="M3.063 13.914l-1.72 7.445a.992.992 0 0 0 1.188 1.192l7.446-1.719zm0 0" fill-rule="evenodd" fill="#78909c"/></svg>
